X:36
T:Highland Mary to the tune of Kathrine Ogie. Dix.36
M:C
L:1/8
Q:1/4=120
S:Anon. MS dated 1811, from Dixon collection, Holton le Moor, Lincs.
R:Song
O:England;Lincolnshire;Holton le Moor
Z:vmp.R.Greig 2012 <http://www.village-music-project.org.uk>
K:Bm
BA|F2(Bc)”undotted in ms”B2>c2|d2(cB)B2(cd)|e2> f2 (ec) (Bc)|A3 Bc2(BA)|
w:Y-e banks and braes, and streams, a-round the cas-tle o’ Mon-gom-er-y, Green
F2(Bc)B2>c2|(d>e) c>d B2 (ag)|f2e/d/c d>e c>d|B4f2:|
w:be y-our woods, and f-air y-our flowers! Y-our wat—ers nev—er drum-lie:
|:Bc|def g a2>b2|af efa2ed|c2 af ec Bc|”undotted in ms”A2>B2c2BA|
w:Th-ere sim–mer first un-f–aulds h-er robes, A-nd there th-ey l-ang–est tarr–y; I-n
d2cBB2>F2|B>cd e {d}{e}f2(ed)|e>fa b (af) (ec)|B4d2||
w: there I– took the l–ast fare-well o-f m–y dear H-igh–land Mar-y.
W:%
W:How sweetly bloom’d the gay green birk,
W:How rich the hawthorn’s blossoms,
W:As underneath their fragrant shade,
W:I clasped her to my bosom!
W:The golden hours, on angel wings,
W:Flew o’er me and my dearie;
W:For dear to me, as light and life
W:Was my sweet Highland Mary.
W:%
W:Wi’ mony a vow, and lock’d embrace,
W:Our parting was fu’ tender;
W:And pledging aft to meet again,
W:We tore ourselves asunder:
W:But O’, fell deaths untimely frost,
W:That nip’t my flower so early!
W:Now green’s the sod, and caulds the clay,
W:That wraps my Highland Mary!
W:%
W:0 pale, pale now, those rosy lips
W:I aft ha kissed so fondly!
W:And closed for aye, the sparkling glance,
W:That dwelt on me so kindly!
W:And mouldering now in silent dust,
W:That heart that loed me dearly!
W:But still within my bosom’s core
W:Shall live my Highland Mary.

